X: 1
T:Praeludium ex d
T:(Prelude) BWV 925
C:Johann Sebastian Bach?
O:Germany
B:From "Klavierb\"uchlein f\"ur Wilhelm Friedemann Bach".
N:This prelude may have been written by Wilhelm Friedemann Bach.
Z:Transcribed by Frank Nordberg - http://www.musicaviva.com

V:1 Program 1 6 up %Harpsichord
V:2 Program 1 6 merge down %Harpsichord
V:3 Program 1 6 bass up %Harpsichord
V:4 Program 1 6 bass merge down %Harpsichord
M:C
L:1/16
K:D
V:1
zDFD ABcA dcde dfed|c4f4-f2f2e4-|
V:2
x16|z2A4A2B6c2-|
V:3
F,4E,2A,4A,4^G,2|A,2x8x4 x2|
V:4
D,4C,4B,,4E,4|A,A,,C,A,, D,E,F,D, =G,F,G,A, G,B,A,G,|

V:1
e4d2 x8 x2|f4e2a2[d4f4][e4^g4]|
V:2
cAcA defd gfga gbag|z2d4c2- c2B4B2|
V:3
z2A,4D2- D2D4C2|D2 x8x4 x2|
V:4
F,4F,4E,4A,4|DD,F,D, A,B,CA, DCDE DFED|

V:1
[e4a4][d4f4]=gfga gbag|fefg fagf e4-eEFG|
V:2
z2A4A2d2 z2z4 |x16|
V:3
x8G2F2E4-|E4D4-DDCB,C4-|
V:4
CB,CD =CEDC B,4^C2B,2|A,2F,2 B,2A,2 ^G,2E,2 A,2=G,2|

V:1
AGAB A=cBA GFGA GBAG|F4x4[E4G4]x4|
V:2
x16|D4 zB,DB,-B,4zCEC-|
V:3
C2A,2D4-D2D4C2|x16|
V:4
F,6D,2E,4A,4|zD,F,D, G,2G,,2zE,G,E, A,2A,,2|

V:1
[F4A4]x4[G4B]x4 |[d6A6-][A2c2-][F2-c2][F4-B4][F2A2-]|
V:2
C4zDFD-D4zFAF-|F4E4D4C4|
V:3
x16|x16|
V:4
zF,A,F, B,2B,,2zG,B,G,D2D,2|\
zD,,F,,D,, A,,B,,C,A,, D,B,,D,B,, F,G,A,F,|

V:1
[A2D2-][D4-G4][D2F2-]FFEDE4-|EEDCD4-DDCB,C4|
V:2
B,4A,4B,6B,2|A,4zB,F,A,G,4zA,E,G,|
V:3
x16|x16|
V:4
G,G,,B,,G,, D,E,F,D, G,2G,,2 zC,E,C,|F,2F,,2 zB,,D,B,, E,2E,,2 zA,,C,A,,|

V:1
F,A,D=C B,DGF EBAG FED=C|B,DGA MF2ED D3E- ED2C|
V:2
x16|B,-[B,3D3-] D2C2D4A,2G,2|
V:3
x16|x4A,4-A,D,G,2 F,2E,2|
V:4
D,E,F,D, G,F,E,D, ^C,A,,B,,C, D,E,F,D,|G,2E,2 A,2A,,2 B,,3G,, A,,4|

V:1
zDFD GABG =cBcd cedc|B4A4-A2G2-GF2E|
V:2
x8x4 x2A2-|A2G2- GEF2- FD3- D3^C|
V:3
[D,2F,2][A,2-=C2] [A,2B,2-][G,2-B,2] [G,2A,2-][G,2A,2-] [F,2-A,2][F,2]|\
zG,B,G, D3=C B,3_B, A,2G,2|
V:4
D,16-|D,16|

V:1
[D2F2][A,2-E2-] [A,2-E2][A,2D2-]D4C4|D8-DA,B,CD4|]
V:2
A,2G,2 F,E,F,D, G,F,G,A, G,B,A,G,-|G,G,F,E, F,4-F,8|]
V:3
zA,,^C,A,,D,4E,2D,2 E,2A,,2|D,2A,,2- A,,A,,B,,C, D,8|]
V:4
D,,16-|D,,8D,,8|]

